brandFactory_export/3.Masa/Foro_3Masa.svg

<?xml version="1.0" encoding="UTF-8"?>
<svg width="24px" height="24px" viewBox="0 0 24 24" version="1.1" xmlns="http://www.w3.org/2000/svg" xmlns:xlink="http://www.w3.org/1999/xlink">
    <title>3.Masa/Foro_3Masa</title>
    <g id="Symbols" stroke="none" stroke-width="1" fill="none" fill-rule="evenodd">
        <g id="3.Masa/Foro_3Masa" fill="#5CB615" fill-rule="nonzero">
            <path d="M10.8067227,16.7294118 C12.4134454,16.7294118 13.6537815,17.1596639 14.497479,18.010084 C15.3411765,18.8605042 15.7680672,20.1042017 15.7680672,21.7176471 L15.7680672,22.9647059 C15.7680672,23.3344538 15.4689076,23.6369748 15.0957983,23.6369748 L0.672268907,23.6369748 C0.302521008,23.6369748 -2.00559569e-10,23.3344538 -2.00559569e-10,22.9647059 L-2.00559569e-10,21.7176471 C-2.00559569e-10,20.1042017 0.426890756,18.8571429 1.27058824,18.010084 C2.11428571,17.1630252 3.35798319,16.7294118 4.96134454,16.7294118 L10.8067227,16.7294118 Z M7.88571429,6.77647059 C9.34453781,6.77647059 10.4806723,7.2 11.2672269,8.0302521 C12.0067227,8.81344538 12.3831933,9.90588235 12.3831933,11.2739496 C12.3831933,12.6420168 12.0067227,13.7344538 11.2672269,14.5176471 C10.4806723,15.3478992 9.34117647,15.7714286 7.88571429,15.7714286 C6.42689076,15.7714286 5.2907563,15.3512605 4.50420168,14.5176471 C3.76134454,13.7344538 3.38823529,12.6420168 3.38823529,11.2739496 C3.38823529,9.90588235 3.76470588,8.81344538 4.50420168,8.0302521 C5.2907563,7.19663866 6.42689076,6.77647059 7.88571429,6.77647059 Z M21.7848739,-1.03799739e-05 C22.7085577,-1.03799739e-05 23.4743062,0.685324552 23.5938777,1.57806218 C23.6177558,1.69922465 23.6302521,1.82462985 23.6302521,1.95294118 L23.6302521,6.63529412 C23.6302521,7.70420168 22.7630252,8.57142857 21.6941176,8.57142857 L17.7478992,8.57142857 C17.3714286,9.16638655 16.5747899,10.4201681 16.4168067,10.6588235 C16.0672269,11.1932773 15.5697479,11.5159664 15.1193277,11.5159664 C15.0756303,11.5159664 15.0285714,11.512605 14.9848739,11.5058824 C14.487395,11.4285714 14.0840336,10.9512605 14.0840336,10.4403361 L14.0840336,8.57142857 L13.9529412,8.57142857 C12.907563,8.57142857 12.1176471,7.73781513 12.1176471,6.63529412 L12.1176471,1.95294118 C12.1176471,0.884033613 12.9848739,0.0168067227 14.0537815,0.0168067227 L14.3344303,0.0153697911 C14.4141878,0.00495663511 14.4955451,-0.000285801719 14.5781513,-1.03799739e-05 L14.5781513,-1.03799739e-05 Z M15.2504202,3.6302521 C14.8907563,3.6302521 14.594958,3.92268908 14.594958,4.28571429 C14.594958,4.6487395 14.887395,4.94117647 15.2504202,4.94117647 C15.6134454,4.94117647 15.9058824,4.6487395 15.9058824,4.28571429 C15.9058824,3.92268908 15.610084,3.6302521 15.2504202,3.6302521 Z M17.8722689,3.6302521 C17.512605,3.6302521 17.2168067,3.92268908 17.2168067,4.28571429 C17.2168067,4.6487395 17.5092437,4.94117647 17.8722689,4.94117647 C18.2352941,4.94117647 18.5277311,4.6487395 18.5277311,4.28571429 C18.5277311,3.92268908 18.2319328,3.6302521 17.8722689,3.6302521 Z M20.4941176,3.6302521 C20.1344538,3.6302521 19.8386555,3.92268908 19.8386555,4.28571429 C19.8386555,4.6487395 20.1310924,4.94117647 20.4941176,4.94117647 C20.8571429,4.94117647 21.1495798,4.6487395 21.1495798,4.28571429 C21.1495798,3.92268908 20.8537815,3.6302521 20.4941176,3.6302521 Z" id="Foro_3Masa"></path>
        </g>
    </g>
</svg>

<svg width="24" height="24" viewBox="0 0 24 24" xmlns="http://www.w3.org/2000/svg"><path d="M10.807 16.73c1.606 0 2.847.43 3.69 1.28.844.85 1.271 2.094 1.271 3.708v1.247c0 .37-.3.672-.672.672H.672A.674.674 0 010 22.965v-1.247c0-1.614.427-2.86 1.27-3.708.844-.847 2.088-1.28 3.691-1.28h5.846zM7.886 6.775c1.459 0 2.595.424 3.381 1.254.74.783 1.116 1.876 1.116 3.244 0 1.368-.376 2.46-1.116 3.244-.786.83-1.926 1.253-3.381 1.253-1.46 0-2.595-.42-3.382-1.253-.743-.784-1.116-1.876-1.116-3.244 0-1.368.377-2.46 1.116-3.244.787-.833 1.923-1.254 3.382-1.254zM21.785 0c.924 0 1.69.685 1.809 1.578.024.121.036.247.036.375v4.682a1.937 1.937 0 01-1.936 1.936h-3.946c-.377.595-1.173 1.85-1.331 2.088-.35.534-.847.857-1.298.857a.905.905 0 01-.134-.01c-.498-.077-.901-.555-.901-1.066V8.571h-.131c-1.045 0-1.835-.833-1.835-1.936V1.953c0-1.069.867-1.936 1.936-1.936l.28-.002c.08-.01.162-.015.244-.015zM15.25 3.63a.656.656 0 10.002 1.313.656.656 0 00-.002-1.313zm2.622 0a.656.656 0 10.002 1.313.656.656 0 00-.002-1.313zm2.622 0a.656.656 0 10.002 1.313.656.656 0 00-.002-1.313z" fill="#5CB615" fill-rule="nonzero"/></svg>
